Papirus/16x16/apps/idevice.svg

<svg width="16" height="16" version="1.1" xmlns="http://www.w3.org/2000/svg">
 <g transform="matrix(3.7795274,0,0,3.7795274,-15.999997,-13.999998)">
  <ellipse cx="6.3499999" cy="5.8208332" rx="2.1166666" ry="2.1166663" style="fill:#fc9300"/>
 </g>
 <g transform="matrix(.5 0 0 .5 -15.923043 -14.999998)">
  <path transform="matrix(2,0,0,2,31.846086,29.999996)" d="m6.0175781 4.0019531c-1.046877-0.0409-1.9802987 0.6555014-2.4492187 1.4980469-0.8883135 1.5961-0.614653 3.776169 0 5.5 0.4364175 1.223959 1.4780481 3 2.4628906 3s0.9775805-0.5 1.96875-0.5c0.9935955 0 0.9873564 0.5 1.9746094 0.5 0.9872536 0 2.0588146-1.961931 2.4687496-3 0.579735-1.4680505 0.890488-3.9039 0-5.5-0.470068-0.8425455-1.407591-1.5389469-2.4570309-1.4980469-0.9377515-0.040893-1.5056766 0.5-1.9863281 0.5-0.479478 0-1.0469604-0.5408935-1.9824219-0.5z" style="fill:#ffffff"/>
  <path d="m43.846092 32c4 0 3.995308 2.681096 4 6-4 0-4-2.4-4-6z" style="fill:#ffffff"/>
  <circle cx="57.846092" cy="45" r="3.9999995" style="fill:#fc9300"/>
 </g>
</svg>

<svg xmlns="http://www.w3.org/2000/svg" width="16" height="16" version="1.1">
 <circle style="fill:#fc9300" cx="8" cy="8" r="8"/>
 <path style="fill:#ffffff" d="M 6.0176,4.002 C 4.9707,3.9611 4.0373,4.6575 3.5684,5.5 2.68,7.0961 2.9537,9.2762 3.5684,11 4.0048,12.224 5.0464,14 6.0312,14 7.0161,14 7.0088,13.5 8,13.5 8.9936,13.5 8.9874,14 9.9746,14 10.962,14 12.033,12.038 12.443,11 13.023,9.5319 13.334,7.0961 12.443,5.5 11.973,4.6575 11.036,3.9611 9.9863,4.002 9.0486,3.9611 8.4807,4.502 8,4.502 7.5205,4.502 6.953,3.9611 6.0176,4.002 Z"/>
 <path style="fill:#ffffff" d="M 6,1 C 8,1 7.9975,2.3405 8,4 6,4 6,2.8 6,1 Z"/>
 <circle style="fill:#fc9300" cx="13" cy="7.5" r="2"/>
</svg>
